X:1
T:James Gibb editions
T:Come unto Me, ye weary - Barnby
%%score [ ( 1 2 ) ( 3 4 ) ]
L:1/8
Q:1/4=88
M:4/4
K:Eb
V:1 treble nm="Midi_74"
V:2 treble 
V:3 bass nm="Midi_74"
V:4 bass 
V:1
"^Come unto Me, ye weary""^Joseph Barnby\n(1838-96)""^William Chatterton Dix\n(1837-98)"!mp! G2 | %1
 F2 G2 A2 G2 |!>(! B4 A2!>)! ||!p! F2 | E2 E2 E2 F2 | G6 ||!p! G2 | G3 G =A2 =B2 | (c2 d2) e2 || %9
 e2 | e3 e d2 c2 | B6 ||[M:4/4]!f! B2 | f3 f d2 B2 | B4 e2 || B2 | f3 f d2 B2 | e6 || B2 | %19
 c3 _d c2 G2 | B4 A2 ||!pp! C2 | G2 F2 B,2 F2 | E6 || A4 G4 |] %25
V:2
 E2 | E2 E2 E2 E2 | E4 E2 || C2 | B,2 B,2 C2 D2 | E6 || G2 | F3 F F2 D2 | (G2 F2) E2 || G2 | %10
 F2 G2 =A2 A2 | B6 ||[M:4/4] B,2 | D3 D F2 D2 | E4 G2 || E2 | D3 D F2 D2 | E6- || F2 | %19
 =E3 F E2 G2 | G4 F2 || C2 | D2 D2 B,2 B,2 | B,6 || E4 E4 |] %25
V:3
!mp! B,2 | A,2 B,2 C2 B,2 | _D4 C2 ||!p! A,2 | G,2 G,2 A,2 A,2 | G,6 || B,2 | =B,3 B, C2 D2 | %8
 (C2 =B,2) C2 || B,2 | =A,2 C2 F2 E2 | D6 ||[M:4/4]!f! B,2 | %13
"^1 \"Come unto Me, ye weary,\nAnd I will give you rest.\"\nO blessed voice of Jesus,\nWhich comes to hearts oppressed!\nIt tells of benediction,\nOf pardon, grace, and peace,\nOf joy that hath no ending,\nOf love that cannot cease.\n\n2 \"Come unto Me, ye wand'rers,\nAnd I will give you light.\"\n0 loving voice of Jesus,\nWhich comes to cheer the night!\nOur hearts were filled with sadness,\nAnd we had lost our way;\nBut Thou hast brought us gladness\nAnd songs at break of day." B,3 B, B,2 B,2 | %14
 B,4 B,2 || B,2 |"^Ped." B,3 B, B,2 B,2 | (B,2 A,2 G,2) || B,2 | %19
"^3 \"Come unto Me, ye fainting,\nAnd I will give you life.\"\nO cheering voice of Jesus,\nWhich comes to aid our strife!\nThe foe is stern and eager,\nThe fight is fierce and long;\nBut Thou hast made us mighty\nAnd stronger than the strong.\n\n4 \"And whosoever cometh,\nI will not cast him out.\"\nO patient love of Jesus,\nWhich drives away our doubt,\nWhich, though we be unworthy\nOf love so great and free,\nInvites us very sinners\nTo come, dear Lord, to Thee!" B,2 G,2 C2 C2 | %20
 _D4 C2 ||"^rall."!pp! A,2 | A,2 A,2 A,2 A,2 | G,6 || C4 B,4 |] %25
V:4
 E,2 | E,2 E,2 E,2 E,2 | A,,4 A,,2 || A,,2 | B,,2 B,,2 B,,2 B,,2 | E,6 || E,2 | D,3 D, D,2 F,2 | %8
 (E,2- D,2) C,2 || C,2 | F,2 F,2 F,2 F,2 | B,6 ||[M:4/4] B,2 | A,3 A, A,2 A,2 | (G,2 E,2) B,,2 || %15
 G,2 | A,3 A, A,2 A,2 | (G,2 F,2 E,2) || _D,2 | C,2 C,2 C,2 =E,2 | F,4 F,2 || A,,2 | %22
 B,,2 B,,2 B,,2 B,,2 | E,6 || A,,4 E,4 |] %25

